build/logo/ArtemisSolid.svg

<svg xmlns="http://www.w3.org/2000/svg" fill="none" viewBox="0 0 24 24" focusable="false"><path d="M0 0H24V24H0z"/><path fill="#74767B" fill-rule="evenodd" d="M17.7681 6.72263C17.7519 6.77976 17.7285 6.83469 17.6973 6.88743L16.3584 9.14133L17.7505 11.5388C17.811 11.6428 17.8413 11.7549 17.8413 11.8752L17.8413 12.0251C17.8413 12.1494 17.8091 12.2646 17.7451 12.3708L16.3203 14.7375L17.7017 17.1303C17.7227 17.167 17.7401 17.2043 17.7538 17.2429C17.7595 17.259 17.7646 17.2754 17.769 17.2917C17.7837 17.3476 17.7915 17.4052 17.7915 17.4653L17.7915 17.6052C17.7915 17.6638 17.7842 17.7207 17.7695 17.7756C17.7554 17.8305 17.7334 17.8835 17.7046 17.9345L16.1748 20.6448C16.0464 20.8716 15.852 20.9851 15.5913 20.9851L15.4766 20.9851L12.3364 20.915C12.21 20.9123 12.0996 20.8825 12.0049 20.8261C11.9102 20.77 11.832 20.6867 11.769 20.5769L10.4136 18.1982L7.50439 18.125C7.37842 18.1218 7.26855 18.092 7.17432 18.0356C7.08008 17.9792 7.00146 17.8965 6.93896 17.7868L5.4292 15.1369C5.3999 15.0854 5.37793 15.0322 5.36328 14.9768C5.34863 14.9216 5.34131 14.8642 5.34131 14.8052L5.34131 14.665C5.34131 14.6047 5.34912 14.5466 5.36426 14.4905C5.36981 14.4697 5.3764 14.4494 5.384 14.4294C5.39716 14.3948 5.41342 14.3608 5.43262 14.3276L6.81787 11.9519L5.4541 9.63498C5.42285 9.58274 5.3999 9.52805 5.38428 9.47141C5.36914 9.41477 5.36133 9.35593 5.36133 9.29514L5.36133 9.15525C5.36133 9.13181 5.36246 9.10862 5.36475 9.08567C5.36829 9.05027 5.3746 9.0156 5.38379 8.98166C5.39893 8.92576 5.42139 8.8718 5.45117 8.82004L7.01123 6.12009C7.14355 5.89133 7.34131 5.77976 7.60547 5.78538L10.3613 5.84446L11.8232 3.3469C11.8892 3.23337 11.9717 3.14915 12.0708 3.09397C12.1694 3.03879 12.2847 3.01243 12.4155 3.01536L15.6655 3.08542C15.7939 3.08811 15.9058 3.11814 16.001 3.17576C16.0962 3.23313 16.1748 3.31809 16.2373 3.43015L17.707 6.0803C17.7632 6.18137 17.7915 6.28953 17.7915 6.40525L17.7915 6.54514C17.7915 6.60642 17.7837 6.66575 17.7681 6.72263ZM15.2751 6.49607C15.2751 7.21213 14.6946 7.7927 13.9786 7.7927C13.2626 7.7927 12.6821 7.21213 12.6821 6.49607C12.6821 5.78025 13.2626 5.19968 13.9786 5.19968C14.6946 5.19968 15.2751 5.78025 15.2751 6.49607ZM9.2442 10.5447C9.96024 10.5447 10.5407 9.96409 10.5407 9.24802C10.5407 8.5322 9.96024 7.95164 9.2442 7.95164C8.5282 7.95164 7.94775 8.5322 7.94775 9.24802C7.94775 9.96409 8.5282 10.5447 9.2442 10.5447ZM9.2442 16.0488C9.96024 16.0488 10.5407 15.4682 10.5407 14.7522C10.5407 14.0364 9.96024 13.4558 9.2442 13.4558C8.5282 13.4558 7.94775 14.0364 7.94775 14.7522C7.94775 15.4682 8.5282 16.0488 9.2442 16.0488ZM13.9786 18.8005C14.6946 18.8005 15.2751 18.2199 15.2751 17.5039C15.2751 16.7881 14.6946 16.2075 13.9786 16.2075C13.2626 16.2075 12.6821 16.7881 12.6821 17.5039C12.6821 18.2199 13.2626 18.8005 13.9786 18.8005ZM15.2751 12C15.2751 12.716 14.6946 13.2966 13.9786 13.2966C13.2626 13.2966 12.6821 12.716 12.6821 12C12.6821 11.2842 13.2626 10.7036 13.9786 10.7036C14.6946 10.7036 15.2751 11.2842 15.2751 12Z"/></svg>

<svg xmlns="http://www.w3.org/2000/svg" fill="none" viewBox="0 0 24 24" focusable="false"><path fill="#74767B" fill-rule="evenodd" d="M17.76 6.72c-.01.05-.04.11-.07.16l-1.34 2.26 1.4 2.39c.06.11.09.22.09.34v.15c0 .12-.04.24-.1.35l-1.42 2.36 1.38 2.4c.02.03.04.07.05.11 0 .01.01.03.01.05.02.05.03.11.03.17v.14c0 .06-.01.12-.03.17-.01.06-.03.11-.06.16l-1.53 2.71a.62.62 0 0 1-.58.34h-.12l-3.14-.07c-.12 0-.24-.03-.33-.09a.7.7 0 0 1-.24-.25l-1.35-2.38-2.91-.07q-.195 0-.33-.09a.8.8 0 0 1-.24-.25l-1.51-2.65a.4.4 0 0 1-.06-.16c-.02-.05-.02-.11-.02-.17v-.14c0-.06 0-.12.02-.17 0-.03.01-.05.02-.07.01-.03.03-.06.05-.1l1.38-2.37-1.36-2.32a.6.6 0 0 1-.07-.16c-.02-.06-.02-.12-.02-.18v-.21c0-.03.01-.07.02-.1a.5.5 0 0 1 .07-.16l1.56-2.7c.13-.23.33-.35.59-.34l2.76.06 1.46-2.5c.06-.11.15-.2.25-.25.09-.06.21-.08.34-.08l3.25.07c.13 0 .24.03.34.09.09.06.17.14.23.26l1.47 2.65c.06.1.09.2.09.32v.14q0 .09-.03.18m-2.49-.23a1.295 1.295 0 1 1-2.59 0c0-.71.58-1.3 1.29-1.3.72 0 1.3.59 1.3 1.3m-6.03 4.05a1.295 1.295 0 1 0 0-2.59 1.295 1.295 0 1 0 0 2.59m0 5.5a1.295 1.295 0 1 0 0-2.59 1.295 1.295 0 1 0 0 2.59m4.73 2.76c.72 0 1.3-.59 1.3-1.3a1.295 1.295 0 1 0-2.59 0c0 .71.58 1.3 1.29 1.3m1.3-6.8a1.295 1.295 0 1 1-2.59-.01 1.295 1.295 0 0 1 2.59.01"/></svg>
